public/assets/telegram.svg

<svg width="142" height="50" viewBox="0 0 142 50" fill="none" xmlns="http://www.w3.org/2000/svg">
<rect x="141.5" y="49.5" width="141" height="49" rx="6.5" transform="rotate(-180 141.5 49.5)" fill="white" stroke="url(#paint0_linear_2329_172)"/>
<path d="M60.577 30V21.103H57.14V19.92H65.26V21.103H61.823V30H60.577ZM68.5294 30.21C67.7874 30.21 67.1388 30.0467 66.5834 29.72C66.0328 29.3887 65.6034 28.929 65.2954 28.341C64.9874 27.7483 64.8334 27.0577 64.8334 26.269C64.8334 25.443 64.9851 24.729 65.2884 24.127C65.5918 23.5203 66.0141 23.0537 66.5554 22.727C67.1014 22.3957 67.7408 22.23 68.4734 22.23C69.2341 22.23 69.8804 22.405 70.4124 22.755C70.9491 23.105 71.3504 23.6043 71.6164 24.253C71.8871 24.9017 72.0038 25.674 71.9664 26.57H70.7064V26.122C70.6924 25.1933 70.5034 24.5003 70.1394 24.043C69.7754 23.581 69.2341 23.35 68.5154 23.35C67.7454 23.35 67.1598 23.5973 66.7584 24.092C66.3571 24.5867 66.1564 25.296 66.1564 26.22C66.1564 27.1113 66.3571 27.802 66.7584 28.292C67.1598 28.782 67.7314 29.027 68.4734 29.027C68.9728 29.027 69.4068 28.9127 69.7754 28.684C70.1441 28.4553 70.4334 28.1263 70.6434 27.697L71.8404 28.11C71.5464 28.7773 71.1031 29.2953 70.5104 29.664C69.9224 30.028 69.2621 30.21 68.5294 30.21ZM65.7364 26.57V25.569H71.3224V26.57H65.7364ZM73.6649 30V19.71H74.9109V30H73.6649ZM80.2873 30.21C79.5453 30.21 78.8966 30.0467 78.3413 29.72C77.7906 29.3887 77.3613 28.929 77.0533 28.341C76.7453 27.7483 76.5913 27.0577 76.5913 26.269C76.5913 25.443 76.7429 24.729 77.0463 24.127C77.3496 23.5203 77.7719 23.0537 78.3133 22.727C78.8593 22.3957 79.4986 22.23 80.2313 22.23C80.9919 22.23 81.6383 22.405 82.1703 22.755C82.7069 23.105 83.1083 23.6043 83.3743 24.253C83.6449 24.9017 83.7616 25.674 83.7243 26.57H82.4643V26.122C82.4503 25.1933 82.2613 24.5003 81.8973 24.043C81.5333 23.581 80.9919 23.35 80.2733 23.35C79.5033 23.35 78.9176 23.5973 78.5163 24.092C78.1149 24.5867 77.9143 25.296 77.9143 26.22C77.9143 27.1113 78.1149 27.802 78.5163 28.292C78.9176 28.782 79.4893 29.027 80.2313 29.027C80.7306 29.027 81.1646 28.9127 81.5333 28.684C81.9019 28.4553 82.1913 28.1263 82.4013 27.697L83.5983 28.11C83.3043 28.7773 82.8609 29.2953 82.2683 29.664C81.6803 30.028 81.0199 30.21 80.2873 30.21ZM77.4943 26.57V25.569H83.0803V26.57H77.4943ZM88.3417 33.57C87.9451 33.57 87.5577 33.5093 87.1797 33.388C86.8017 33.2667 86.4541 33.0823 86.1367 32.835C85.8241 32.5923 85.5627 32.2843 85.3527 31.911L86.4937 31.309C86.6804 31.6777 86.9441 31.946 87.2847 32.114C87.6301 32.282 87.9847 32.366 88.3487 32.366C88.8294 32.366 89.2284 32.2773 89.5457 32.1C89.8631 31.9273 90.0964 31.6683 90.2457 31.323C90.3997 30.9777 90.4744 30.5483 90.4697 30.035V27.97H90.6167V22.44H91.7227V30.049C91.7227 30.2543 91.7157 30.4527 91.7017 30.644C91.6924 30.8353 91.6691 31.0243 91.6317 31.211C91.5337 31.7477 91.3401 32.1887 91.0507 32.534C90.7614 32.884 90.3881 33.143 89.9307 33.311C89.4734 33.4837 88.9437 33.57 88.3417 33.57ZM88.2507 30.21C87.5461 30.21 86.9417 30.035 86.4377 29.685C85.9337 29.3303 85.5441 28.852 85.2687 28.25C84.9981 27.648 84.8627 26.969 84.8627 26.213C84.8627 25.457 84.9981 24.778 85.2687 24.176C85.5441 23.574 85.9337 23.1003 86.4377 22.755C86.9417 22.405 87.5437 22.23 88.2437 22.23C88.9577 22.23 89.5574 22.4027 90.0427 22.748C90.5281 23.0933 90.8944 23.567 91.1417 24.169C91.3937 24.771 91.5197 25.4523 91.5197 26.213C91.5197 26.9643 91.3937 27.6433 91.1417 28.25C90.8944 28.852 90.5281 29.3303 90.0427 29.685C89.5574 30.035 88.9601 30.21 88.2507 30.21ZM88.4047 29.069C88.9134 29.069 89.3311 28.9477 89.6577 28.705C89.9844 28.4577 90.2247 28.1193 90.3787 27.69C90.5374 27.256 90.6167 26.7637 90.6167 26.213C90.6167 25.653 90.5374 25.1607 90.3787 24.736C90.2247 24.3067 89.9867 23.973 89.6647 23.735C89.3427 23.4923 88.9344 23.371 88.4397 23.371C87.9264 23.371 87.5017 23.497 87.1657 23.749C86.8344 24.001 86.5871 24.3417 86.4237 24.771C86.2651 25.2003 86.1857 25.681 86.1857 26.213C86.1857 26.7497 86.2674 27.235 86.4307 27.669C86.5941 28.0983 86.8391 28.439 87.1657 28.691C87.4971 28.943 87.9101 29.069 88.4047 29.069ZM93.6773 30V22.44H94.7903V24.267L94.6083 24.029C94.6969 23.7957 94.8113 23.581 94.9513 23.385C95.0959 23.189 95.2569 23.028 95.4343 22.902C95.6303 22.7433 95.8519 22.622 96.0993 22.538C96.3466 22.454 96.5986 22.405 96.8553 22.391C97.1119 22.3723 97.3523 22.3887 97.5763 22.44V23.609C97.3149 23.539 97.0279 23.5203 96.7153 23.553C96.4026 23.5857 96.1133 23.7 95.8473 23.896C95.6046 24.0687 95.4156 24.2787 95.2803 24.526C95.1496 24.7733 95.0586 25.0417 95.0073 25.331C94.9559 25.6157 94.9303 25.9073 94.9303 26.206V30H93.6773ZM100.803 30.21C100.238 30.21 99.7645 30.1073 99.3818 29.902C99.0038 29.692 98.7168 29.4167 98.5208 29.076C98.3295 28.7353 98.2338 28.362 98.2338 27.956C98.2338 27.5593 98.3085 27.2163 98.4578 26.927C98.6118 26.633 98.8265 26.3903 99.1018 26.199C99.3772 26.003 99.7062 25.849 100.089 25.737C100.448 25.639 100.849 25.555 101.293 25.485C101.741 25.4103 102.193 25.3427 102.651 25.282C103.108 25.2213 103.535 25.163 103.932 25.107L103.484 25.366C103.498 24.694 103.362 24.197 103.078 23.875C102.798 23.553 102.312 23.392 101.622 23.392C101.164 23.392 100.763 23.497 100.418 23.707C100.077 23.9123 99.8368 24.2483 99.6968 24.715L98.5138 24.358C98.6958 23.6953 99.0482 23.175 99.5708 22.797C100.093 22.419 100.782 22.23 101.636 22.23C102.322 22.23 102.91 22.3537 103.4 22.601C103.894 22.8437 104.249 23.2123 104.464 23.707C104.571 23.9403 104.639 24.1947 104.667 24.47C104.695 24.7407 104.709 25.0253 104.709 25.324V30H103.603V28.187L103.862 28.355C103.577 28.9663 103.178 29.4283 102.665 29.741C102.156 30.0537 101.535 30.21 100.803 30.21ZM100.992 29.167C101.44 29.167 101.827 29.0877 102.154 28.929C102.485 28.7657 102.751 28.5533 102.952 28.292C103.152 28.026 103.283 27.7367 103.344 27.424C103.414 27.1907 103.451 26.9317 103.456 26.647C103.465 26.3577 103.47 26.136 103.47 25.982L103.904 26.171C103.498 26.227 103.099 26.2807 102.707 26.332C102.315 26.3833 101.944 26.4393 101.594 26.5C101.244 26.556 100.929 26.6237 100.649 26.703C100.443 26.7683 100.25 26.8523 100.068 26.955C99.8905 27.0577 99.7458 27.1907 99.6338 27.354C99.5265 27.5127 99.4728 27.711 99.4728 27.949C99.4728 28.1543 99.5242 28.3503 99.6268 28.537C99.7342 28.7237 99.8975 28.8753 100.117 28.992C100.341 29.1087 100.632 29.167 100.992 29.167ZM115.566 30L115.573 25.163C115.573 24.5983 115.421 24.1573 115.118 23.84C114.819 23.518 114.429 23.357 113.949 23.357C113.669 23.357 113.403 23.4223 113.151 23.553C112.899 23.679 112.693 23.8797 112.535 24.155C112.376 24.4257 112.297 24.7733 112.297 25.198L111.639 24.932C111.629 24.3953 111.739 23.9263 111.968 23.525C112.201 23.119 112.518 22.804 112.92 22.58C113.321 22.356 113.774 22.244 114.278 22.244C115.066 22.244 115.687 22.4843 116.14 22.965C116.592 23.441 116.819 24.0827 116.819 24.89L116.812 30H115.566ZM106.522 30V22.44H107.635V24.463H107.775V30H106.522ZM111.051 30L111.058 25.212C111.058 24.6333 110.908 24.1807 110.61 23.854C110.311 23.5227 109.914 23.357 109.42 23.357C108.93 23.357 108.533 23.525 108.23 23.861C107.926 24.197 107.775 24.6427 107.775 25.198L107.117 24.806C107.117 24.316 107.233 23.8773 107.467 23.49C107.7 23.1027 108.017 22.7993 108.419 22.58C108.82 22.356 109.275 22.244 109.784 22.244C110.292 22.244 110.736 22.3513 111.114 22.566C111.492 22.7807 111.783 23.0887 111.989 23.49C112.194 23.8867 112.297 24.3603 112.297 24.911L112.29 30H111.051Z" fill="#475367"/>
<rect x="13" y="5" width="40" height="40" rx="8" fill="white"/>
<g clip-path="url(#clip0_2329_172)">
<path d="M45.4436 24.9991C45.4436 31.8747 39.8747 37.4436 32.9991 37.4436C26.1236 37.4436 20.5547 31.8747 20.5547 24.9991C20.5547 18.1236 26.1236 12.5547 32.9991 12.5547C39.8747 12.5547 45.4436 18.1236 45.4436 24.9991Z" fill="url(#paint1_linear_2329_172)"/>
<path d="M30.7139 30.7019C30.3095 30.7019 30.3821 30.5464 30.2369 30.1627L29.0547 26.2634L36.3969 21.6797L37.2577 21.9078L36.5421 23.8575L30.7139 30.7019Z" fill="#C8DAEA"/>
<path d="M30.7188 30.7014C31.0299 30.7014 31.1647 30.5563 31.341 30.3903C31.6106 30.1311 35.0743 26.7607 35.0743 26.7607L32.9484 26.2422L30.978 27.4866L30.7188 30.5977V30.7014Z" fill="#A9C9DD"/>
<path d="M30.9215 27.5298L35.9408 31.2321C36.5112 31.5432 36.926 31.3876 37.0712 30.7032L39.1141 21.0795C39.3215 20.2395 38.7926 19.8661 38.243 20.115L26.2549 24.7402C25.4356 25.0721 25.446 25.5284 26.1097 25.7254L29.1897 26.6898L36.3141 22.1995C36.646 21.9921 36.9571 22.1061 36.7082 22.3343L30.9215 27.5298Z" fill="url(#paint2_linear_2329_172)"/>
</g>
<defs>
<linearGradient id="paint0_linear_2329_172" x1="211" y1="49" x2="211" y2="97" gradientUnits="userSpaceOnUse">
<stop stop-color="#E4E7EC"/>
<stop offset="1" stop-color="white"/>
</linearGradient>
<linearGradient id="paint1_linear_2329_172" x1="36.6464" y1="16.4882" x2="30.4242" y2="31.0065" gradientUnits="userSpaceOnUse">
<stop stop-color="#37AEE2"/>
<stop offset="1" stop-color="#1E96C8"/>
</linearGradient>
<linearGradient id="paint2_linear_2329_172" x1="33.928" y1="25.3889" x2="36.5206" y2="29.537" gradientUnits="userSpaceOnUse">
<stop stop-color="#EFF7FC"/>
<stop offset="1" stop-color="white"/>
</linearGradient>
<clipPath id="clip0_2329_172">
<rect x="20.5547" y="12.5547" width="24.8889" height="24.8889" rx="8" fill="white"/>
</clipPath>
</defs>
</svg>

<svg xmlns="http://www.w3.org/2000/svg" width="142" height="50" fill="none" xmlns:v="https://vecta.io/nano"><rect x="141.5" y="49.5" width="141" height="49" rx="6.5" transform="rotate(180 141.5 49.5)" fill="#fff" stroke="url(#A)"/><path d="M60.577 30v-8.897H57.14V19.92h8.12v1.183h-3.437V30h-1.246zm7.952.21c-.742 0-1.391-.163-1.946-.49s-.98-.791-1.288-1.379-.462-1.283-.462-2.072c0-.826.152-1.54.455-2.142s.726-1.073 1.267-1.4 1.185-.497 1.918-.497c.761 0 1.407.175 1.939.525s.938.849 1.204 1.498.387 1.421.35 2.317h-1.26v-.448c-.014-.929-.203-1.622-.567-2.079s-.905-.693-1.624-.693c-.77 0-1.356.247-1.757.742s-.602 1.204-.602 2.128c0 .891.201 1.582.602 2.072s.973.735 1.715.735c.499 0 .933-.114 1.302-.343s.658-.558.868-.987l1.197.413a3.39 3.39 0 0 1-1.33 1.554c-.588.364-1.248.546-1.981.546zm-2.793-3.64v-1.001h5.586v1.001h-5.586zM73.665 30V19.71h1.246V30h-1.246zm6.622.21c-.742 0-1.391-.163-1.946-.49a3.43 3.43 0 0 1-1.288-1.379c-.308-.593-.462-1.283-.462-2.072 0-.826.152-1.54.455-2.142s.726-1.073 1.267-1.4 1.185-.497 1.918-.497c.761 0 1.407.175 1.939.525s.938.849 1.204 1.498.387 1.421.35 2.317h-1.26v-.448c-.014-.929-.203-1.622-.567-2.079s-.905-.693-1.624-.693c-.77 0-1.356.247-1.757.742s-.602 1.204-.602 2.128c0 .891.201 1.582.602 2.072s.973.735 1.715.735c.499 0 .933-.114 1.302-.343s.658-.558.868-.987l1.197.413a3.39 3.39 0 0 1-1.33 1.554c-.588.364-1.248.546-1.981.546zm-2.793-3.64v-1.001h5.586v1.001h-5.586zm10.847 7a3.78 3.78 0 0 1-1.162-.182 3.35 3.35 0 0 1-1.043-.553c-.313-.243-.574-.551-.784-.924l1.141-.602a1.74 1.74 0 0 0 .791.805c.345.168.7.252 1.064.252.481 0 .88-.089 1.197-.266a1.56 1.56 0 0 0 .7-.777c.154-.345.229-.775.224-1.288V27.97h.147v-5.53h1.106v7.609l-.021.595a3.83 3.83 0 0 1-.07.567c-.098.537-.292.978-.581 1.323a2.57 2.57 0 0 1-1.12.777c-.457.173-.987.259-1.589.259zm-.091-3.36c-.705 0-1.309-.175-1.813-.525s-.894-.833-1.169-1.435-.406-1.281-.406-2.037.135-1.435.406-2.037.665-1.076 1.169-1.421 1.106-.525 1.806-.525c.714 0 1.314.173 1.799.518s.852.819 1.099 1.421.378 1.283.378 2.044c0 .751-.126 1.43-.378 2.037a3.27 3.27 0 0 1-1.099 1.435c-.485.35-1.083.525-1.792.525zm.154-1.141c.509 0 .926-.121 1.253-.364s.567-.586.721-1.015.238-.926.238-1.477c0-.56-.079-1.052-.238-1.477s-.392-.763-.714-1.001-.73-.364-1.225-.364c-.513 0-.938.126-1.274.378s-.579.593-.742 1.022-.238.91-.238 1.442.082 1.022.245 1.456a2.28 2.28 0 0 0 .735 1.022c.331.252.744.378 1.239.378zm5.273.931v-7.56h1.113v1.827l-.182-.238c.089-.233.203-.448.343-.644a2.15 2.15 0 0 1 .483-.483 2.14 2.14 0 0 1 .665-.364c.247-.084.499-.133.756-.147s.497-.002.721.049v1.169c-.261-.07-.548-.089-.861-.056a1.75 1.75 0 0 0-.868.343 1.87 1.87 0 0 0-.567.63 2.73 2.73 0 0 0-.273.805c-.051.285-.077.576-.077.875V30h-1.253zm7.126.21c-.565 0-1.038-.103-1.421-.308s-.665-.485-.861-.826a2.25 2.25 0 0 1-.287-1.12c0-.397.075-.74.224-1.029a2.01 2.01 0 0 1 .644-.728c.275-.196.604-.35.987-.462.359-.098.76-.182 1.204-.252l1.358-.203 1.281-.175-.448.259c.014-.672-.122-1.169-.406-1.491s-.766-.483-1.456-.483c-.458 0-.859.105-1.204.315s-.581.541-.721 1.008l-1.183-.357c.182-.663.534-1.183 1.057-1.561s1.211-.567 2.065-.567c.686 0 1.274.124 1.764.371a2.16 2.16 0 0 1 1.064 1.106 2.4 2.4 0 0 1 .203.763c.028.271.042.555.042.854V30h-1.106v-1.813l.259.168c-.285.611-.684 1.073-1.197 1.386s-1.13.469-1.862.469zm.189-1.043c.448 0 .835-.079 1.162-.238s.597-.376.798-.637a2.1 2.1 0 0 0 .392-.868c.07-.233.107-.492.112-.777l.014-.665.434.189-1.197.161-1.113.168c-.35.056-.665.124-.945.203-.206.065-.399.149-.581.252a1.32 1.32 0 0 0-.434.399c-.107.159-.161.357-.161.595 0 .205.051.401.154.588a1.19 1.19 0 0 0 .49.455c.224.117.515.175.875.175zm14.574.833l.007-4.837c0-.565-.152-1.006-.455-1.323s-.689-.483-1.169-.483a1.71 1.71 0 0 0-.798.196c-.252.126-.458.327-.616.602s-.238.618-.238 1.043l-.658-.266c-.01-.537.1-1.006.329-1.407s.55-.721.952-.945.854-.336 1.358-.336c.788 0 1.409.24 1.862.721s.679 1.118.679 1.925l-.007 5.11h-1.246zm-9.044 0v-7.56h1.113v2.023h.14V30h-1.253zm4.529 0l.007-4.788c0-.579-.15-1.031-.448-1.358s-.696-.497-1.19-.497-.887.168-1.19.504-.455.782-.455 1.337l-.658-.392c0-.49.116-.929.35-1.316a2.47 2.47 0 0 1 .952-.91 2.75 2.75 0 0 1 1.365-.336c.508 0 .952.107 1.33.322a2.18 2.18 0 0 1 .875.924c.205.397.308.87.308 1.421L112.29 30h-1.239z" fill="#475367"/><rect x="13" y="5" width="40" height="40" rx="8" fill="#fff"/><g clip-path="url(#D)"><path d="M45.444 24.999c0 6.876-5.569 12.445-12.445 12.445s-12.444-5.569-12.444-12.445 5.569-12.444 12.444-12.444 12.445 5.569 12.445 12.444z" fill="url(#B)"/><path d="M30.714 30.702c-.404 0-.332-.155-.477-.539l-1.182-3.899 7.342-4.584.861.228-.716 1.95-5.828 6.844z" fill="#c8daea"/><path d="M30.719 30.701c.311 0 .446-.145.622-.311l3.733-3.63-2.126-.518-1.97 1.244-.259 3.111v.104z" fill="#a9c9dd"/><path d="M30.922 27.53l5.019 3.702c.57.311.985.155 1.13-.529l2.043-9.624c.207-.84-.322-1.213-.871-.965L26.255 24.74c-.819.332-.809.788-.145.985l3.08.964 7.124-4.49c.332-.207.643-.093.394.135l-5.787 5.196z" fill="url(#C)"/></g><defs><linearGradient id="A" x1="211" y1="49" x2="211" y2="97" gradientUnits="userSpaceOnUse"><stop stop-color="#e4e7ec"/><stop offset="1" stop-color="#fff"/></linearGradient><linearGradient id="B" x1="36.646" y1="16.488" x2="30.424" y2="31.007" gradientUnits="userSpaceOnUse"><stop stop-color="#37aee2"/><stop offset="1" stop-color="#1e96c8"/></linearGradient><linearGradient id="C" x1="33.928" y1="25.389" x2="36.521" y2="29.537" gradientUnits="userSpaceOnUse"><stop stop-color="#eff7fc"/><stop offset="1" stop-color="#fff"/></linearGradient><clipPath id="D"><rect x="20.555" y="12.555" width="24.889" height="24.889" rx="8" fill="#fff"/></clipPath></defs></svg>
